.local/share/icons/Gruvbox-Plus-Dark/mimetypes/scalable/application-x-gramps-package.svg

<svg width="256" height="256" viewBox="0 0 256 256" fill="none" xmlns="http://www.w3.org/2000/svg">
<g opacity="0.4" filter="url(#filter0_f)">
<path d="M55.0839 15.5636H155.608L216.009 75.7129L216.011 224.609C216.011 233.52 208.749 240.737 199.838 240.737H55.0838C46.1734 240.737 39 233.564 39 224.654V31.6474C39 22.737 46.1734 15.5636 55.0838 15.5636H55.0839Z" fill="#282828"/>
</g>
<path d="M55.0839 15H155.608L216.009 75.1493L216.011 224.045C216.011 232.956 208.749 240.174 199.838 240.174H55.0838C46.1734 240.174 39 233 39 224.09V31.0838C39 22.1734 46.1734 15 55.0838 15H55.0839Z" fill="#ebdbb2"/>
<path fill-rule="evenodd" clip-rule="evenodd" d="M155.609 22.9787H55.0839C50.58 22.9787 46.9787 26.5799 46.9787 31.0838V224.09C46.9787 228.594 50.5799 232.195 55.0838 232.195H199.838C204.371 232.195 208.032 228.521 208.032 224.046V75.1493L155.609 22.9787ZM155.608 15H55.0839C46.1735 15 39 22.1734 39 31.0838V224.09C39 233 46.1734 240.174 55.0838 240.174H199.838C208.749 240.174 216.011 232.956 216.011 224.045L216.009 75.1493L155.608 15Z" fill="url(#paint0_linear)"/>
<path d="M148.497 161.46L148.453 177.29L159.399 177.35L159.414 173.881L151.902 173.844L151.937 161.406H151.947L151.942 159.701L151.947 157.996H151.937L151.902 145.558L159.414 145.513L159.399 142.052L148.453 142.103L148.497 157.939L142.116 157.832L142.111 158.099L142.057 158.1L142.084 159.698L142.057 161.301L142.111 161.302L142.115 161.561L148.497 161.461V161.46ZM142.084 96.7186L142.057 98.319H142.111L142.115 98.5868L148.497 98.4808L148.453 114.315L159.399 114.368L159.414 110.899L151.902 110.862L151.937 98.4233H151.947L151.942 96.7186L151.947 95.0138H151.937L151.902 82.5753L159.414 82.5378L159.399 79.0691L148.453 79.1208L148.497 94.9563L142.116 94.8504L142.111 95.1173H142.057L142.084 96.7186ZM106.405 126.412L106.365 98.3641L113.877 98.3265L113.862 94.857L102.916 94.9171L102.96 126.355L96.5782 126.248L96.5732 126.515L96.5186 126.516L96.5459 128.115L96.5186 129.716L96.5741 129.718L96.5782 129.977L102.96 129.877L102.916 161.316L113.862 161.368L113.877 157.899L106.365 157.862L106.405 129.822H106.409L106.407 128.116L106.409 126.412H106.405Z" fill="url(#paint1_linear)"/>
<path opacity="0.4" d="M160.195 167.853H187.14V185.134H160.193V167.853H160.195Z" fill="url(#paint2_linear)"/>
<path opacity="0.4" d="M160.195 135.101H187.14V152.381H160.193V135.1L160.195 135.101Z" fill="url(#paint3_linear)"/>
<path opacity="0.4" d="M159.715 103.874H186.66V121.154H159.714V103.874H159.715Z" fill="url(#paint4_linear)"/>
<path opacity="0.4" d="M159.715 71.8657H186.66V89.1457H159.714V71.8649L159.715 71.8657Z" fill="url(#paint5_linear)"/>
<path opacity="0.4" d="M114.658 151.142H141.602V168.422H114.658V151.141V151.142Z" fill="url(#paint6_linear)"/>
<path opacity="0.4" d="M114.658 88.2416H141.602V105.522H114.658V88.2416Z" fill="url(#paint7_linear)"/>
<path opacity="0.4" d="M68.8607 119.506H95.8069V136.786H68.8607V119.506Z" fill="url(#paint8_linear)"/>
<path fill-rule="evenodd" clip-rule="evenodd" d="M159.333 166.988H188V186H159.333V166.987V166.988ZM161.055 168.723H186.279V184.265H161.055V168.723Z" fill="url(#paint9_linear)"/>
<path fill-rule="evenodd" clip-rule="evenodd" d="M159.333 134.235H188V153.247H159.333V134.235ZM161.055 135.97H186.279V151.513H161.055V135.97Z" fill="url(#paint10_linear)"/>
<path fill-rule="evenodd" clip-rule="evenodd" d="M158.852 103.009H187.52V122.02H158.852V103.009ZM160.574 104.743H185.799V120.285H160.574V104.743V104.743Z" fill="url(#paint11_linear)"/>
<path fill-rule="evenodd" clip-rule="evenodd" d="M158.852 71H187.52V90.0114H158.852V71ZM160.574 72.7348H185.799V88.2775H160.574V72.7348Z" fill="url(#paint12_linear)"/>
<path fill-rule="evenodd" clip-rule="evenodd" d="M113.796 150.277H142.463V169.288H113.795V150.277H113.796ZM115.518 152.011H140.742V167.554H115.518V152.011Z" fill="url(#paint13_linear)"/>
<path fill-rule="evenodd" clip-rule="evenodd" d="M113.796 87.3767H142.463V106.388H113.795V87.3767H113.796ZM115.518 89.1115H140.742V104.653H115.518V89.1107V89.1115Z" fill="url(#paint14_linear)"/>
<path fill-rule="evenodd" clip-rule="evenodd" d="M68 118.641H96.6668V137.652H68V118.641ZM69.7214 120.375H94.9462V135.917H69.7214V120.375V120.375Z" fill="url(#paint15_linear)"/>
<path opacity="0.25" d="M155.608 17V61.2306C155.608 70.141 162.867 77.1605 171.777 77.1605L216.009 77.1493V75.1493L155.608 17Z" fill="#282828"/>
<path d="M155.608 15V59.2306C155.608 68.141 162.867 75.1605 171.777 75.1605L216.009 75.1493L155.608 15Z" fill="url(#paint16_linear)"/>
<defs>
<filter id="filter0_f" x="23.8778" y="0.441412" width="207.255" height="255.418" filterUnits="userSpaceOnUse" color-interpolation-filters="sRGB">
<feFlood flood-opacity="0" result="BackgroundImageFix"/>
<feBlend mode="normal" in="SourceGraphic" in2="BackgroundImageFix" result="shape"/>
<feGaussianBlur stdDeviation="7.5611" result="effect1_foregroundBlur"/>
</filter>
<linearGradient id="paint0_linear" x1="39" y1="15" x2="39" y2="240.174" gradientUnits="userSpaceOnUse">
<stop offset="1e-07" stop-color="#fabd2f"/>
<stop offset="1" stop-color="#b57614"/>
</linearGradient>
<linearGradient id="paint1_linear" x1="96.5186" y1="79.0691" x2="96.5186" y2="177.35" gradientUnits="userSpaceOnUse">
<stop offset="1e-07" stop-color="#fabd2f"/>
<stop offset="1" stop-color="#b57614"/>
</linearGradient>
<linearGradient id="paint2_linear" x1="160.193" y1="167.853" x2="160.193" y2="185.134" gradientUnits="userSpaceOnUse">
<stop offset="1e-07" stop-color="#fabd2f"/>
<stop offset="1" stop-color="#b57614"/>
</linearGradient>
<linearGradient id="paint3_linear" x1="160.193" y1="135.1" x2="160.193" y2="152.381" gradientUnits="userSpaceOnUse">
<stop offset="1e-07" stop-color="#fabd2f"/>
<stop offset="1" stop-color="#b57614"/>
</linearGradient>
<linearGradient id="paint4_linear" x1="159.714" y1="103.874" x2="159.714" y2="121.154" gradientUnits="userSpaceOnUse">
<stop offset="1e-07" stop-color="#fabd2f"/>
<stop offset="1" stop-color="#b57614"/>
</linearGradient>
<linearGradient id="paint5_linear" x1="159.714" y1="71.8649" x2="159.714" y2="89.1457" gradientUnits="userSpaceOnUse">
<stop offset="1e-07" stop-color="#fabd2f"/>
<stop offset="1" stop-color="#b57614"/>
</linearGradient>
<linearGradient id="paint6_linear" x1="114.658" y1="151.141" x2="114.658" y2="168.422" gradientUnits="userSpaceOnUse">
<stop offset="1e-07" stop-color="#fabd2f"/>
<stop offset="1" stop-color="#b57614"/>
</linearGradient>
<linearGradient id="paint7_linear" x1="114.658" y1="88.2416" x2="114.658" y2="105.522" gradientUnits="userSpaceOnUse">
<stop offset="1e-07" stop-color="#fabd2f"/>
<stop offset="1" stop-color="#b57614"/>
</linearGradient>
<linearGradient id="paint8_linear" x1="68.8607" y1="119.506" x2="68.8607" y2="136.786" gradientUnits="userSpaceOnUse">
<stop offset="1e-07" stop-color="#fabd2f"/>
<stop offset="1" stop-color="#b57614"/>
</linearGradient>
<linearGradient id="paint9_linear" x1="159.333" y1="166.987" x2="159.333" y2="186" gradientUnits="userSpaceOnUse">
<stop offset="1e-07" stop-color="#fabd2f"/>
<stop offset="1" stop-color="#b57614"/>
</linearGradient>
<linearGradient id="paint10_linear" x1="159.333" y1="134.235" x2="159.333" y2="153.247" gradientUnits="userSpaceOnUse">
<stop offset="1e-07" stop-color="#fabd2f"/>
<stop offset="1" stop-color="#b57614"/>
</linearGradient>
<linearGradient id="paint11_linear" x1="158.852" y1="103.009" x2="158.852" y2="122.02" gradientUnits="userSpaceOnUse">
<stop offset="1e-07" stop-color="#fabd2f"/>
<stop offset="1" stop-color="#b57614"/>
</linearGradient>
<linearGradient id="paint12_linear" x1="158.852" y1="71" x2="158.852" y2="90.0114" gradientUnits="userSpaceOnUse">
<stop offset="1e-07" stop-color="#fabd2f"/>
<stop offset="1" stop-color="#b57614"/>
</linearGradient>
<linearGradient id="paint13_linear" x1="113.795" y1="150.277" x2="113.795" y2="169.288" gradientUnits="userSpaceOnUse">
<stop offset="1e-07" stop-color="#fabd2f"/>
<stop offset="1" stop-color="#b57614"/>
</linearGradient>
<linearGradient id="paint14_linear" x1="113.795" y1="87.3767" x2="113.795" y2="106.388" gradientUnits="userSpaceOnUse">
<stop offset="1e-07" stop-color="#fabd2f"/>
<stop offset="1" stop-color="#b57614"/>
</linearGradient>
<linearGradient id="paint15_linear" x1="68" y1="118.641" x2="68" y2="137.652" gradientUnits="userSpaceOnUse">
<stop offset="1e-07" stop-color="#fabd2f"/>
<stop offset="1" stop-color="#b57614"/>
</linearGradient>
<linearGradient id="paint16_linear" x1="155.608" y1="15" x2="155.608" y2="75.1605" gradientUnits="userSpaceOnUse">
<stop offset="1e-07" stop-color="#fabd2f"/>
<stop offset="1" stop-color="#b57614"/>
</linearGradient>
</defs>
</svg>

<svg width="256" height="256" fill="none" version="1.1" viewBox="0 0 256 256" xmlns="http://www.w3.org/2000/svg">
  <path d="m55.08 15h100.5l60.4 60.15 2e-3 148.9c0 8.911-7.262 16.13-16.17 16.13h-144.8c-8.91 0-16.08-7.174-16.08-16.08v-193c0-8.91 7.173-16.08 16.08-16.08h1e-4z" fill="#ebdbb2"/>
  <path d="m155.6 22.98h-100.5c-4.504 0-8.105 3.601-8.105 8.105v193c0 4.504 3.601 8.105 8.105 8.105h144.8c4.533 0 8.194-3.674 8.194-8.149v-148.9l-52.42-52.17zm-1e-3 -7.979h-100.5c-8.91 0-16.08 7.173-16.08 16.08v193c0 8.91 7.173 16.08 16.08 16.08h144.8c8.911 0 16.17-7.218 16.17-16.13l-2e-3 -148.9-60.4-60.15z" clip-rule="evenodd" fill="url(#paint0_linear)" fill-rule="evenodd"/>
  <path d="m148.5 161.5-0.044 15.83 10.95 0.06 0.015-3.469-7.512-0.037 0.035-12.44h0.01l-5e-3 -1.705 5e-3 -1.705h-0.01l-0.035-12.44 7.512-0.045-0.015-3.461-10.95 0.051 0.044 15.84-6.381-0.107-5e-3 0.267-0.054 1e-3 0.027 1.598-0.027 1.603 0.054 1e-3 4e-3 0.259 6.382-0.1v-1e-3zm-6.413-64.74-0.027 1.6h0.054l4e-3 0.2678 6.382-0.106-0.044 15.83 10.95 0.053 0.015-3.469-7.512-0.037 0.035-12.44h0.01l-5e-3 -1.705 5e-3 -1.705h-0.01l-0.035-12.44 7.512-0.0375-0.015-3.469-10.95 0.0517 0.044 15.84-6.381-0.1059-5e-3 0.2669h-0.054l0.027 1.601zm-35.68 29.69-0.04-28.05 7.512-0.0376-0.015-3.47-10.95 0.0601 0.044 31.44-6.382-0.107-5e-3 0.267-0.0546 1e-3 0.0273 1.599-0.0273 1.601 0.0555 2e-3 0.0041 0.259 6.382-0.1-0.044 31.44 10.95 0.052 0.015-3.469-7.512-0.037 0.04-28.04h4e-3l-2e-3 -1.706 2e-3 -1.704h-4e-3z" fill="url(#paint1_linear)"/>
  <path d="m160.2 167.9h26.94v17.28h-26.95v-17.28h2e-3z" fill="url(#paint2_linear)" opacity=".4"/>
  <path d="m160.2 135.1h26.94v17.28h-26.95v-17.28l2e-3 1e-3z" fill="url(#paint3_linear)" opacity=".4"/>
  <path d="m159.7 103.9h26.94v17.28h-26.95v-17.28h1e-3z" fill="url(#paint4_linear)" opacity=".4"/>
  <path d="m159.7 71.87h26.94v17.28h-26.95v-17.28l1e-3 8e-4z" fill="url(#paint5_linear)" opacity=".4"/>
  <path d="m114.7 151.1h26.94v17.28h-26.94v-17.28 1e-3z" fill="url(#paint6_linear)" opacity=".4"/>
  <path d="m114.7 88.24h26.94v17.28h-26.94v-17.28z" fill="url(#paint7_linear)" opacity=".4"/>
  <path d="m68.86 119.5h26.95v17.28h-26.95v-17.28z" fill="url(#paint8_linear)" opacity=".4"/>
  <path d="m159.3 167h28.67v19.01h-28.67v-19.01 1e-3zm1.722 1.735h25.22v15.54h-25.22v-15.54z" clip-rule="evenodd" fill="url(#paint9_linear)" fill-rule="evenodd"/>
  <path d="m159.3 134.2h28.67v19.01h-28.67v-19.01zm1.722 1.735h25.22v15.54h-25.22v-15.54z" clip-rule="evenodd" fill="url(#paint10_linear)" fill-rule="evenodd"/>
  <path d="m158.9 103h28.67v19.01h-28.67v-19.01zm1.722 1.734h25.22v15.54h-25.22v-15.54z" clip-rule="evenodd" fill="url(#paint11_linear)" fill-rule="evenodd"/>
  <path d="m158.9 71h28.67v19.01h-28.67v-19.01zm1.722 1.735h25.22v15.54h-25.22v-15.54z" clip-rule="evenodd" fill="url(#paint12_linear)" fill-rule="evenodd"/>
  <path d="m113.8 150.3h28.67v19.01h-28.67v-19.01h1e-3zm1.722 1.734h25.22v15.54h-25.22v-15.54z" clip-rule="evenodd" fill="url(#paint13_linear)" fill-rule="evenodd"/>
  <path d="m113.8 87.38h28.67v19.01h-28.67v-19.01h1e-3zm1.722 1.735h25.22v15.54h-25.22v-15.54 8e-4z" clip-rule="evenodd" fill="url(#paint14_linear)" fill-rule="evenodd"/>
  <path d="m68 118.6h28.67v19.01h-28.67v-19.01zm1.721 1.734h25.22v15.54h-25.22v-15.54z" clip-rule="evenodd" fill="url(#paint15_linear)" fill-rule="evenodd"/>
  <path d="m155.6 17v44.23c0 8.91 7.259 15.93 16.17 15.93l44.23-0.0112v-2l-60.4-58.15z" fill="#282828" opacity=".25"/>
  <path d="m155.6 15v44.23c0 8.91 7.259 15.93 16.17 15.93l44.23-0.0112-60.4-60.15z" fill="url(#paint16_linear)"/>
  <defs>
    <linearGradient id="paint0_linear" x1="39" x2="39" y1="15" y2="240.2" gradientUnits="userSpaceOnUse">
      <stop stop-color="#fabd2f" offset="1e-7"/>
      <stop stop-color="#b57614" offset="1"/>
    </linearGradient>
    <linearGradient id="paint1_linear" x1="96.52" x2="96.52" y1="79.07" y2="177.4" gradientUnits="userSpaceOnUse">
      <stop stop-color="#fabd2f" offset="1e-7"/>
      <stop stop-color="#b57614" offset="1"/>
    </linearGradient>
    <linearGradient id="paint2_linear" x1="160.2" x2="160.2" y1="167.9" y2="185.1" gradientUnits="userSpaceOnUse">
      <stop stop-color="#fabd2f" offset="1e-7"/>
      <stop stop-color="#b57614" offset="1"/>
    </linearGradient>
    <linearGradient id="paint3_linear" x1="160.2" x2="160.2" y1="135.1" y2="152.4" gradientUnits="userSpaceOnUse">
      <stop stop-color="#fabd2f" offset="1e-7"/>
      <stop stop-color="#b57614" offset="1"/>
    </linearGradient>
    <linearGradient id="paint4_linear" x1="159.7" x2="159.7" y1="103.9" y2="121.2" gradientUnits="userSpaceOnUse">
      <stop stop-color="#fabd2f" offset="1e-7"/>
      <stop stop-color="#b57614" offset="1"/>
    </linearGradient>
    <linearGradient id="paint5_linear" x1="159.7" x2="159.7" y1="71.86" y2="89.15" gradientUnits="userSpaceOnUse">
      <stop stop-color="#fabd2f" offset="1e-7"/>
      <stop stop-color="#b57614" offset="1"/>
    </linearGradient>
    <linearGradient id="paint6_linear" x1="114.7" x2="114.7" y1="151.1" y2="168.4" gradientUnits="userSpaceOnUse">
      <stop stop-color="#fabd2f" offset="1e-7"/>
      <stop stop-color="#b57614" offset="1"/>
    </linearGradient>
    <linearGradient id="paint7_linear" x1="114.7" x2="114.7" y1="88.24" y2="105.5" gradientUnits="userSpaceOnUse">
      <stop stop-color="#fabd2f" offset="1e-7"/>
      <stop stop-color="#b57614" offset="1"/>
    </linearGradient>
    <linearGradient id="paint8_linear" x1="68.86" x2="68.86" y1="119.5" y2="136.8" gradientUnits="userSpaceOnUse">
      <stop stop-color="#fabd2f" offset="1e-7"/>
      <stop stop-color="#b57614" offset="1"/>
    </linearGradient>
    <linearGradient id="paint9_linear" x1="159.3" x2="159.3" y1="167" y2="186" gradientUnits="userSpaceOnUse">
      <stop stop-color="#fabd2f" offset="1e-7"/>
      <stop stop-color="#b57614" offset="1"/>
    </linearGradient>
    <linearGradient id="paint10_linear" x1="159.3" x2="159.3" y1="134.2" y2="153.2" gradientUnits="userSpaceOnUse">
      <stop stop-color="#fabd2f" offset="1e-7"/>
      <stop stop-color="#b57614" offset="1"/>
    </linearGradient>
    <linearGradient id="paint11_linear" x1="158.9" x2="158.9" y1="103" y2="122" gradientUnits="userSpaceOnUse">
      <stop stop-color="#fabd2f" offset="1e-7"/>
      <stop stop-color="#b57614" offset="1"/>
    </linearGradient>
    <linearGradient id="paint12_linear" x1="158.9" x2="158.9" y1="71" y2="90.01" gradientUnits="userSpaceOnUse">
      <stop stop-color="#fabd2f" offset="1e-7"/>
      <stop stop-color="#b57614" offset="1"/>
    </linearGradient>
    <linearGradient id="paint13_linear" x1="113.8" x2="113.8" y1="150.3" y2="169.3" gradientUnits="userSpaceOnUse">
      <stop stop-color="#fabd2f" offset="1e-7"/>
      <stop stop-color="#b57614" offset="1"/>
    </linearGradient>
    <linearGradient id="paint14_linear" x1="113.8" x2="113.8" y1="87.38" y2="106.4" gradientUnits="userSpaceOnUse">
      <stop stop-color="#fabd2f" offset="1e-7"/>
      <stop stop-color="#b57614" offset="1"/>
    </linearGradient>
    <linearGradient id="paint15_linear" x1="68" x2="68" y1="118.6" y2="137.7" gradientUnits="userSpaceOnUse">
      <stop stop-color="#fabd2f" offset="1e-7"/>
      <stop stop-color="#b57614" offset="1"/>
    </linearGradient>
    <linearGradient id="paint16_linear" x1="155.6" x2="155.6" y1="15" y2="75.16" gradientUnits="userSpaceOnUse">
      <stop stop-color="#fabd2f" offset="1e-7"/>
      <stop stop-color="#b57614" offset="1"/>
    </linearGradient>
  </defs>
</svg>
